X: 2
T: Tierspolska
I: Tierspolska	M-1	G	hambo
C: M-1 \2511980 Matt Fichtenbaum
M: 3/4
Z: Transcribed to abc by Mary Lou Knack
R: hambo
K: G
D| "G"G2 B>D G>B| "C"(3cBc e>c A>G| "D"F2 A>D F>A| "G"d>e ~d>c B>A|
   "G"G2 B>D G>B| "C"(3cBc e>c A>G| "D"F2 A>D F>A|1 "G"A/B/A/F/ G3 :|2 "G"A/B/A/F/ |]
\
|:G4| "G"(3GBd g2 g>g| "D"g>f f2 f>f| "C"f>e c>e g>e| "G"e>d d>B G>B|
      "C"c/d/c/B/ c>d e>c| "G"c>B B>c d2| "D"D2 F>A c>A|1 "G"(3FEF :|2 "G"(3FEF G3|]

% ---------- page 2 ----------
#include "LeftHeader.h"
%%footer 09/01/98 For use only by Roaring Jelly members

